dist/assets/img/footer/vk.svg

<svg width="50" height="50" viewBox="0 0 50 50" fill="none" xmlns="http://www.w3.org/2000/svg">
<path d="M50 0H0V50H50V0Z" fill="#44678D"/>
<path d="M12.9528 15.2162C14.1511 18.1754 15.6697 20.9654 17.6699 23.4701C17.9352 23.8034 18.2696 24.0997 18.6219 24.341C19.1365 24.6944 19.622 24.5702 19.8312 23.9816C20.0525 23.3639 20.2556 22.1121 20.2676 21.4634C20.3006 19.7686 20.2627 18.6578 20.1716 16.9651C20.1126 15.8809 19.7272 14.9289 18.1324 14.6415C17.6399 14.5525 17.5941 14.1471 17.9105 13.7427C18.5692 12.9007 19.4869 12.7665 20.482 12.7134C22.0948 12.6263 23.7135 12.6974 25.3283 12.7134C25.986 12.7195 26.6477 12.7725 27.2954 12.9137C28.1404 13.0979 28.5928 13.6905 28.732 14.5154C28.8041 14.9408 28.8412 15.3783 28.8311 15.8088C28.7891 17.6588 28.7 19.5078 28.6789 21.3568C28.6699 22.0826 28.7229 22.8264 28.8782 23.5332C29.0954 24.5182 29.7661 24.7655 30.4519 24.0538C31.3228 23.1498 32.0907 22.1327 32.8114 21.0996C34.1209 19.2206 35.0988 17.1584 35.9408 15.0321C36.3762 13.935 36.7097 13.6967 37.8899 13.6937C40.1083 13.6887 42.3267 13.6867 44.5451 13.6937C44.9385 13.6957 45.35 13.7328 45.7213 13.8509C46.324 14.0432 46.5633 14.5347 46.4221 15.1584C46.0927 16.62 45.3029 17.8623 44.457 19.0566C43.0995 20.9727 41.677 22.8428 40.2875 24.7367C40.1104 24.978 39.9542 25.2353 39.809 25.4965C39.2894 26.4356 39.3255 26.9621 40.0833 27.7439C41.2896 28.9883 42.581 30.1524 43.7492 31.4308C44.5982 32.3609 45.384 33.3699 46.0567 34.4321C46.9077 35.7755 46.382 37.0408 44.7924 37.2661C43.7924 37.4073 38.9072 37.2672 38.6548 37.2661C37.3414 37.2601 36.1902 36.8046 35.2631 35.9126C34.232 34.9196 33.2949 33.8304 32.3049 32.7942C32.0066 32.4819 31.6882 32.1826 31.3449 31.9213C30.535 31.3036 29.7401 31.4407 29.3617 32.3918C29.0384 33.2087 28.759 35.354 28.746 35.5372C28.678 36.4952 28.0683 37.1059 26.9951 37.1649C23.8967 37.3331 20.8944 36.9877 18.0975 35.4891C15.7269 34.2198 13.8339 32.4248 12.1941 30.3316C9.58928 27.0068 7.53182 23.3522 5.65341 19.5902C5.55741 19.3979 3.65486 15.3494 3.60373 15.1582C3.43379 14.5179 3.59232 13.9062 4.13332 13.6957C4.47058 13.5645 10.7434 13.6953 10.8477 13.7009C11.8486 13.7551 12.5311 14.1773 12.9528 15.2162Z" fill="white"/>
</svg>

<svg width="50" height="50" fill="none" xmlns="http://www.w3.org/2000/svg"><path d="M50 0H0v50h50V0z" fill="#44678D"/><path d="M12.953 15.216c1.198 2.96 2.717 5.75 4.717 8.254.265.333.6.63.952.871.515.353 1 .23 1.21-.36.22-.617.424-1.869.436-2.518.033-1.694-.005-2.805-.096-4.498-.06-1.084-.445-2.036-2.04-2.323-.492-.09-.538-.495-.222-.9.66-.841 1.577-.976 2.572-1.029 1.613-.087 3.232-.016 4.846 0a9.79 9.79 0 011.967.2c.845.185 1.298.777 1.437 1.602.072.426.11.863.1 1.294-.043 1.85-.132 3.699-.153 5.548a9.66 9.66 0 00.2 2.176c.216.985.887 1.232 1.573.52.87-.903 1.639-1.92 2.36-2.953 1.309-1.88 2.287-3.942 3.129-6.068.435-1.097.769-1.335 1.949-1.338 2.218-.005 4.437-.007 6.655 0 .393.002.805.039 1.176.157.603.192.842.684.701 1.307-.33 1.462-1.12 2.704-1.965 3.899-1.358 1.916-2.78 3.786-4.17 5.68a7.155 7.155 0 00-.478.76c-.52.939-.483 1.465.274 2.247 1.207 1.244 2.498 2.408 3.666 3.687a21.73 21.73 0 012.308 3.001c.85 1.343.325 2.609-1.265 2.834-1 .141-5.885.001-6.137 0-1.314-.006-2.465-.461-3.392-1.353-1.031-.993-1.968-2.083-2.958-3.119a8.265 8.265 0 00-.96-.873c-.81-.617-1.605-.48-1.983.47-.324.818-.603 2.963-.616 3.146-.068.958-.678 1.569-1.75 1.628-3.1.168-6.102-.177-8.898-1.676-2.371-1.27-4.264-3.064-5.904-5.157-2.605-3.325-4.662-6.98-6.54-10.742-.097-.192-2-4.24-2.05-4.432-.17-.64-.012-1.252.53-1.462.337-.131 6.61 0 6.714.005 1 .054 1.683.476 2.105 1.515z" fill="#fff"/></svg>
